X:1
T:Gulati, 87.87 D
T:Gulati, 87.87 D
T:James M. Vines, 1904
T:Public Domain Courtesy of the Cyber Hymnal™
C:James M. Vines, 1904
Z:Public Domain
Z:Courtesy of the Cyber Hymnal™
%%score ( 1 2 ) ( 3 4 )
L:1/8
Q:1/4=105
M:4/4
K:G
V:1 treble 
V:2 treble 
V:3 bass 
V:4 bass 
V:1
 [GB]3 [GB] [EA][EG][EG][CE] | [B,D]2 [DG]4 z2 | [FA]3 [FA] [FA][DF][DG][FA] | [GB]6 z2 | %4
 [GB]3 [GB] [EA][EG][EG][CE] | [B,D]2 [DG]4 z2 | [FA][FA]G[GA] [GB]2 [FA]2 | G6 z2 | %8
 [Gd]3 [Gd] [Ge][Gd][GB][FA] | [GB]2 [Gd]4 z2 | [Gd]3 [Gd] [Ge][Gd][GB]G | [FA]6 z2 | %12
 [GB]3 [GB] [EA][EG][EG][CE] | [B,D]2 [DG]4 z2 | [FA][FA]G[GA] [GB]2 [FA]2 | G8 |] %16
V:2
 x8 | x8 | x8 | x8 | x8 | x8 | x2 G x5 | G6 x2 | x8 | x8 | x7 G | x8 | x8 | x8 | x2 G x5 | G8 |] %16
V:3
 [G,D]3 [G,D] [C,C][C,C][C,C][E,G,] | G,2 [G,B,]4 z2 | [D,D]3 [D,D] [D,D][C,D][B,,D][D,D] | %3
 [G,D]6 z2 | [G,D]3 [G,D] [C,C][C,C][C,C][E,G,] | G,2 [G,B,]4 z2 | %6
 [D,D][D,D][E,B,][E,^C] [D,D]2 [D,=C]2 | [G,,G,B,]6 z2 | [G,B,]3 [G,B,] [G,C][G,B,][G,D][D,D] | %9
 [G,D]2 [G,B,]4 z2 | [G,B,]3 [G,B,] [G,C][G,B,][G,D][D,D] | [D,D]6 z2 | %12
 [G,D]3 [G,D] [C,C][C,C][C,C][E,G,] | G,2 [G,B,]4 z2 | [D,D][D,D][E,B,][E,^C] [D,D]2 [D,=C]2 | %15
 [G,,G,B,]8 |] %16
V:4
 x8 | G,2 x6 | x8 | x8 | x8 | G,2 x6 | x8 | x8 | x8 | x8 | x8 | x8 | x8 | G,2 x6 | x8 | x8 |] %16

